X:1339
T:Halling efter Ola Porkalla
S:Efter Mats Berglund
S:Efter Ola Porkalla
Z:[[http://www.bluerose.karenlmyers.org/IncipitsHalling2.html|Karen Myers (#2082)]]
Z:Upptecknad 5/2001
M:2/4
L:1/16
R:Halling
K:Dm
(DE |: F2)(FD E2)(EC | A,2)(A,C D2)(DC | [M:3/4]D2)(DC D2)(DC A,2)(A,C) |[M:2/4] [1 D4 D2(DE :|2 D4 D4 ||
(DE)(^FG) A2(({A/}c2) | A2)(({A/}c2) A2)(,({A/}c2) | A2)cd (cd)(ef) | d2>f2 (ed)(ef) | d2>f2 (ed)(ef) | d2df e2ef |
d4 A2(fg || a2)(af g2)(gf | a2)ab g2>(f2 | a2)(af g2)(gf | a2)ab g2>(f2 | a2)(af g2)(gf |
a2)ab g2>f2 | (fd)ec A2(ef) | (ef)(ec)d4 | (dcAc) d2(ef) | [M:3/4](ed)(ef)d4 d2 z2 |]
(:musicend:)

(:music:)
